X:1
T:Pange lingua
T:G.P.da Palestrina
T:Pange lingua
C:G.P.da Palestrina
%%score [ 1 [ 2 3 ] 4 ]
L:1/8
Q:1/4=200
M:4/2
K:C
V:1 treble nm="Soprano" snm="S"
V:2 treble-8 nm="Tenor 1" snm="T 1"
V:3 treble-8 nm="Tenor 2" snm="T 2"
V:4 bass nm="Bass" snm="B"
V:1
 z16 | z16 | z16 | z16 | z16 | F16 | E8 F8 | E8 D8 | G8 G6 A2 | B4 c4 A8 | G6 A2 B2 c2 d4- | %11
w: |||||1.Pan-|ge lin-|gua _|glo- ri- *|* * o-||
 d4 c8 B4 | c16 | z16 | c8 d8 | c4 c8 B4 | A8 c8 | B4 A8 G2 F2 | E2 F2 G8 ^F4 | G8 z8 | G8 A8 | %21
w: |si||Cor- *|po- ris mys-|te- *||* * * ri-|um,|San- gui-|
 c8 B8 | A8 G8- | G8 A2 B2 c2 A2 | B4 G8 ^F4 | G8 z4 G4 | A8 c4 B4- | B4 A8 ^G4 | A6 GF E8 | %29
w: nis- que|pre- ti-|* o- * * *||si, San-|gui- nis- que|_ pre- ti-|o- * * *|
 D8 z8 | z16 | z16 | z8 A8 | B8 G8 | E8 A8 | G6 F2 E4 E4 | D16 | z16 | z16 | z16 | z8 G8- | %41
w: si,|||Quem|in mun-|di pre-|* * * ti-|um||||Fruc-|
 G4 G4 G8 | E8 F8 | G8 A8- | A8 A8- | A8 z8 | A8 B8 | G8 E4 E4- | E4 D4 E8 | z16 | A8 B8 | %51
w: * tus ven-|tris ge-|ne- ro-|* si|_|Rex ef-|fu- dit gen-|* ti- um.||Rex ef-|
 G8 E4 E4- | E4 D4 E8- | E16- | E16 ||[M:3/2] ^G8 G4 | A8 A4 | G8 G4 | G8 G4 | c6 c2 c4 | %60
w: fu- dit gen-|* ti- um.|_||2.No- bis|da- tus,|no- bis|na- tus|Ex in- tac-|
 d4 c6 c2 | B12 | B8 B4 | c8 c4 | B8 c4 | B8 B4 | c6 c2 A4 | A4 A6 A2 | A12 | c8 c4 | B8 B4 | %71
w: ta Vir- gi-|ne,|Et in|mun- do|con- ver-|sa- tus|Spar- so ver-|bi se- mi-|ne,|Su- i|mo- ras|
 B8 c4 | B8 B4 | A6 A2 A4 | A4 ^G8 | A8 A4 | ^G12 ||[M:4/2] z16 | z16 | z16 | z16 | z16 | E16 | %83
w: in- co-|la- tus|Mi- ro clau-|sit or-|* di-|ne.||||||3.In|
 E8 F8 | E8 D8 | G8 G8 | A6 B2 c8- | c4 B2 A2 B8 | c6 BA G4 A4- | A4 G2 F2 E8 | z16 | c16 | d16 | %93
w: su- pre-|mae noc-|noc- te|coe- * *||nae _ _ _ _|_ _ _ _||Re-||
 c8 c8- | c4 B4 A8 | c8 B4 A4- | A2 G2 G8 ^F4 | G16- | G8 z8 | z16 | G8 A8 | c12 B4 | A8 G8- | %103
w: cum- bens|_ _ _|cum fra- *|* * * tri-|bus,|_||Ob- ser-|va- ta|le- ge|
 G8 A8 | A16 | z8 A8 | B8 G8 | E8 A8- | A4 A4 G6 F2 | E16 | D8 z4 G4- | G2 F2 E2 D2 C2 D2 E2 C2 | %112
w: _ ple-|ne|Ci-|bis in|le- ga-|* li- bus, _|_|* in|_ _ _ _ _ _ _ _|
 F8 E4 D4- | D4 ^C2 B,2 C4 C4 | D16- | D16 | z16 | z16 | z16 | G12 G4 | G8 E8 | F4 G4 A8- | A8 A8 | %123
w: * le- ga-|* * * * li-|bus,|_||||Ci- bum|tur- bae|du- o- de-|* nae|
 A8 B8 | G8 E4 F4- | F2 E2 E8 D4 | E16- | E8 z8 | z16 | A8 B8 | G8 E4 F4- | F2 E2 D2 C2 D4 E4 | %132
w: Se dat|su- is ma-|* * * ni-|bus.|_||Se dat|su- is ma-||
 G6 F2 E8- | E4 D2 C2 D4 D4 | E16- | E16 || ^G12 G4 | A8 B6 c2 | d8 B8 | B8 c6 B2 | A8 G8 | %141
w: |* * * * ni-|bus.|_|4.Ver- bum|ca- ro, _|_ pa-|nem ve- *|* rum|
 G12 G4 | G8 G8 | G6 G2 G8 | z8 G8 | A4 c8 B2 A2 | B2 c2 d2 B2 c4 A4 | G8 G8 | F4 E4 G8 | %149
w: Ver- bo|car- nem|ef- fi- cit:|Fit-|que san- * *||* guis|Chris- ti me-|
 A2 B2 c8 B4 | c12 B2 A2 | B8 B8 | c4 c8 c4 | d6 c2 B2 c2 d4- | d2 c2 c8 B2 A2 | B6 B2 c8 | %156
w: ||rum, Et|si sen- sus|de- * * * *||* fi- cit,|
 z4 e8 d4 | c12 B4 | d4 c4 e8 | d8 d6 d2 | c4 B4 c6 c2 | c8 A8 | B6 B2 A8 | z16 | z16 | z4 A8 ^G4 | %166
w: Ad fir-|man- dum|cor sin- ce-|rum So- la|fi- des So- la|fi- des|suf- fi- cit.|||So- la|
 A6 B2 c4 B4 | c6 c2 B8 | c8 B8 | c4 c4 A6 A2 | ^G16 || E16 | E16 | F16 | E16 | D16 | G8 G8 | %177
w: fi- * * des|suf- fi- cit.|So- la|fi- des suf- fi-|cit.|5.Tan-|tum|er-|go|_|Sa- cra-|
 A8 c8- | c4 B2 A2 B8 | c16 | z16 | c16 | d16 | c8 c8- | c8 B8 | A16 | c16 | B16 | A16 | G16 | %190
w: men- *||tum||Ve-||ne- re-|* mur|cer-|||nu-|i:|
 G16 | A16 | c16 | B8 A8- | A8 ^G8 | A16 | A16 | z16 | A16 | B16 | G16 | E8 A8 | A8 G8- | %203
w: Et|an-|ti-|quum do-|* cu-|men-|tum||No-|vo|ce-|dat ri-|tu- *|
 G4 F4 E8 | D16- | D8 z8 | G16 | G8 G8- | G8 E8 | F8 G8 | A16 | A16 | z16 | A16 | B12 B4 | G16 | %216
w: |i:|_|Praes-|tet fi-|* des|sup- ple-|men-|tum||Sen-|* su-|um|
 E16 | F16- | F8 F8 | E16- | E8 z8 | A16 | B12 B4 | G16 | E16 | F16- | F8 F8 | E16- | E16- | E16- | %230
w: de-|fec-|* tu-|i.|_|Sen-|* su-|um|de-|fec-|* tu-|i.|_||
 E16 ||[M:3/2] ^G8 G4 | A8 A4 | G8 G4 | G8 G4 | c6 c2 c4 | d4 c6 c2 | B12 | B8 B4 | c8 c4 | B8 c4 | %241
w: |6.Ge- ni-|to- ri,|Ge- ni-|to- que|Laus et ju-|bi- la- ti-|o,|Sa- lus,|ho- nor,|vir- tus|
 B8 B4 | c6 c2 A4 | A4 A6 A2 | A12 | c8 c4 | B8 B4 | B8 c4 | B8 B4 | A6 A2 A4 | A4 ^G8 | A8 A4 | %252
w: quo- que|Sit et be-|ne- dic- ti-|o:|Pro- ce-|den- ti|ab u-|tro- que|Com- par sit|lau- da-|* ti-|
 ^G12 ||[M:4/2] A16 | B8 A8 | ^G16 |] %256
w: o.|A-||men.|
V:2
 B16 | B8 c8 | B8 A8 | c8 d8 | e4 d8 c2 B2 | c6 B2 A2 G2 A4- | A4 G4 F6 G2 | A2 B2 c8 B2 A2 | %8
w: 1.Pan-|ge lin-|gua _|glo- ri-|o- * * *||||
 B4 e6 d2 c4 | B4 e8 d4 | e4 g8 ^f4 | g16 | z8 f8 | g8 f4 f4- | f4 e4 d8 | f8 e4 d4- | %16
w: |||si|Cor-|* po- ris|_ mys- te-|* ri- um,|
 d4 c2 B2 A2 G2 g4- | g4 f4 e8- | e4 d4 d6 c2 | B8 e8 | d8 z8 | c8 d8 | f8 e8 | d8 c8 | d8 d6 c2 | %25
w: _ _ _ _ _ Cor-|* po- ris|_ mys- te- *|* ri-|um,|San- gui-|nis- que|pre- *|ti- o- *|
 B4 e4 d8 | z4 d4 e4 g4- | g4 f4 e6 d2 | c12 c4 | d8 B8 | z16 | d8 e8 | c8 A8 | d4 B4 c4 B4 | %34
w: * * si,|San- gui- nis-|* que pre- *|* ti-|o- si,||Quem in|mun- di|pre- ti- um _|
 z4 A6 B2 c4- | c2 B2 B2 AG A4 G4 | G4 ^F4 G8 | z4 B8 B4 | d8 e8 | A8 B8 | c8 d8 | z4 c8 c4 | %42
w: pre- * *||* ti- um|Fruc- tus|ven- tris|ge- ne-|ro- si|Fruc- tus|
 c8 A8 | d6 e2 f4 e2 d2 | e4 f4 c4 f4 | e8 d8 | z8 d8 | e8 c8 | A4 A8 G4 | E6 F2 G8 | z8 d8 | %51
w: ven- tris|ge- * * * *|* ne- ro- *|* si|Rex|ef- fu-|dit gen- ti-|um. _ _|Rex|
 e8 c8 | A4 A8 ^G4 | A8 B8 | c8 B8 ||[M:3/2] e8 e4 | c8 f4 | d8 d4 | e8 e4 | g6 g2 g4 | g4 a6 a2 | %61
w: ef- fu-|dit gen- *||ti- um.|2.No- bis|da- tus,|no- bis|na- tus|Ex in- tac-|ta Vir- gi-|
 d12 | g8 g4 | g8 g4 | g8 e4 | g8 g4 | e6 e2 f4 | f4 e6 e2 | d12 | g8 g4 | g8 g4 | g8 e4 | g8 g4 | %73
w: ne,|Et in|mun- do|con- ver-|sa- tus|Spar- so ver-|bi se- mi-|ne,|Su- i|mo- ras|in- co-|la- tus|
 e8 f4 | f4 e8 | e8 e4 | e12 ||[M:4/2] B16 | B8 c8 | B8 A8- | A4 G2 F2 G2 A2 B2 c2 | d8 G4 A4- | %82
w: Mi- ro|clau- sit|or- di-|ne.|3.In|su- pre-|mae noc-||* te coe-|
 A4 ^G2 ^F2 G8 | A6 G2 F8 | G16 | z4 d8 e4 | f4 f4 e4 f4 | g16 | e8 z8 | f8 g8 | f8 d6 e2 | %91
w: ||nae|In su-|pre- mae noc- te|coe-|nae|Re- *|cum- bens _|
 f4 F4 A4 G4- | G4 ^F4 G8 | z8 c8 | d8 c4 c4- | c4 e6 d2 d4- | d4 ^c4 d4 d4 | B8 d8 | e8 g8- | %99
w: _ cum fra- *|* tri- bus,|Re-|* cum- bens|_ cum _ _|_ _ fra- tri-|bus, Ob-|ser- va-|
 g4 f4 e8 | d6 e2 f4 e2 d2 | e4 c2 d2 e2 f2 g4- | g4 f4 e8 | d6 e2 f8- | f4 e4 d8 | d8 z8 | d8 e8 | %107
w: * ta le-|ge _ _ _ _|_ ple- * * * *||||ne|Ci- bis|
 c8 A6 B2 | c4 d4 e4 d4- | d4 ^c2 B2 c4 c4 | d8 B4 B4 | e12 e4 | d6 c2 B4 B4 | A16 | A6 G2 A4 B4 | %115
w: in le- *|* * * ga-|* * * * li-|bus, Ci- bis|in le-|ga- * * li-|bus,|in _ _ le-|
 A4 A4 B8 | z4 B8 B4 | d8 G8 | A4 B4 c8 | d8 z4 c4- | c4 c4 c8 | A4 B4 c4 d4- | d4 ^c4 d8 | z8 d8 | %124
w: ga- li- bus,|Ci- bum|tur- bae|du- o- de-|nae Ci-|* bum tur-|bae du- o- de-|* * nae|Se|
 e8 c8 | A4 B6 A2 A4- | A4 ^G4 A6 B2 | c4 G4 d6 c2 | B8 c8 | A8 d8 | e8 c6 B2 | A4 F4 G8 | E8 c8 | %133
w: dat su-|is ma- * *||* ni- bus. _|_ Se|_ dat|su- is _|_ _ ma-||
 A12 B4 | c12 c4 | B16 || e12 e4 | c4 A4 e8 | f8 d8 | g8 e8 | f8 e4 e4- | e4 d4 e8 | d8 e8 | %143
w: |* ni-|bus.|4.Ver- bum|ca- * *|ro, pa-|nem ve-|* rum pa-|* nem ve-|rum Ver-|
 d8 e6 f2 | g8 e4 g4- | g4 ^f4 g8 | z4 g8 f4 | e8 d8 | c8 d8 | e6 f2 g8- | g8 g8 | z8 g8 | e8 f8- | %153
w: bo car- *|* nem ef-|* fi- cit:|Fit- que|san- guis|Chris- ti|me- * *|* rum,|Et|si sen-|
 f8 d8 | e8 f8- | f4 f4 e4 g4- | g4 g4 g8- | g4 f4 e4 d4 | f4 a4 g8 | g4 g8 f4 | e8 e8 | f8 e8- | %162
w: * sus|de- *|* fi- cit, Ad|_ fir- man-|* * * dum|cor sin- ce-|rum So- la|fi- des|suf- *|
 e4 e4 e8 | z8 z4 a4- | a4 g4 f8 | e4 e8 e4 | c4 d4 e8 | e16 | z4 a8 ^g4 | a4 e4 e6 e2 | e16 || %171
w: * fi- cit.|Ad|_ fir- man-|dum cor sin-|ce- * *|rum|So- la|fi- des suf- fi-|cit.|
 c16 | B12 c4 | d16 | G16- | G8 d8 | e8 g8- | g4 ^f2 e2 f8 | g16 | e8 g8- | g4 f4 e4 d4 | %181
w: 5.Tan-|tum _|er-|go|_ Sa-|cra- men-||tum|Ve- ne-|* re- * *|
 c8 z4 c4 | B4 A8 ^G4 | A6 B2 c8 | d8 g8- | g4 f2 e2 f8 | e12 e4 | d16- | d16 | z8 d8 | e8 g8- | %191
w: mur Ve-|ne- re- *||mur cer-||* nu-|i:|_|Et|an- ti-|
 g8 f8 | e16 | d8 f8- | f4 e4 d8- | d4 ^c2 B2 c8 | d16 | B8 c8 | A16 | G8 d8- | d8 e8- | %201
w: * quum|do-|cu- men-|||tum|No- vo|ce-|dat No-|* vo|
 e4 c8 A4- | A4 d6 c2 B2 A2 | B8 c8 | A16 | z8 B8- | B8 e8 | d16 | e16 | d6 c2 B8 | A8 d8- | %211
w: _ ce- dat|_ ri- * * *|* tu-|i:|Praes-|* tet|fi-|des|sup- * *|ple- men-|
 d4 ^c2 B2 c8 | d6 c2 B8 | A16 | G16 | z16 | z16 | c16 | d12 d4 | B16 | c16 | A8 A8 | G8 d8- | %223
w: |||tum|||Sen-|* su-|um|de-|fec- tu-|i. Sen-|
 d8 e8- | e4 e4 c8- | c8 A8- | A8 B4 A4- | A4 ^G2 ^F2 G8 | A12 B4 | c12 c4 | B16 ||[M:3/2] e8 e4 | %232
w: |* su- um|_ de-|* * fec-|||* tu-|i.|6.Ge- ni-|
 c8 f4 | d8 d4 | e8 e4 | g6 g2 g4 | g4 a6 a2 | d12 | g8 g4 | g8 g4 | g8 e4 | g8 g4 | e6 e2 f4 | %243
w: to- ri,|Ge- ni-|to- que|Laus et ju-|bi- la- ti-|o,|Sa- lus,|ho- nor,|vir- tus|quo- que|Sit et be-|
 f4 e6 e2 | d12 | g8 g4 | g8 g4 | g8 e4 | g8 g4 | e8 f4 | f4 e8 | e8 e4 | e12 ||[M:4/2] e8 f8 | %254
w: ne- dic- ti-|o:|Pro- ce-|den- ti|ab u-|tro- que|Com- par|sit lau-|da- ti-|o.|A- *|
 g8 c4 d4 | e16 |] %256
w: |men.|
V:3
 z16 | E16 | E8 F8 | E8 D8 | G8 G8 | A6 G2 A2 B2 c4- | c4 B4 A6 B2 | c8 G8- | G8 z4 e4- | %9
w: |1.Pan-|ge lin-|gua _|glo- ri-|o- * * * *||* si|_ glo-|
 e2 d2 c8 B2 A2 | B4 c4 d6 c2 | B4 e4 d8 | c8 z8 | c8 d8 | c4 c8 B4 | A4 A4 G8 | z8 c8 | %17
w: * ri- o- * *|||si|Cor- *|po- ris mys-|te- ri- um,|Cor-|
 d8 c4 c4- | c4 B4 A4 A4 | G6 A2 B2 G2 c4- | c4 B4 c8 | z8 z4 G4 | A8 c8 | B8 A8 | G8 A8 | %25
w: * po- ris|_ mys- te- ri-|um, _ _ _ _|_ _ _|San-|gui- nis-|que pre-|ti- o-|
 G4 c8 B4- | B2 A2 A8 G4 | d6 c2 B8 | A8 A8 | B8 G8 | E8 A4 A4 | F2 G2 A6 G2 G4- | G4 ^F2 E2 F8 | %33
w: si, pre- *|* * * ti-|o- * *|si, Quem|in mun-|di pre- ti-|um _ _ _ _|_ _ _ _|
 G4 d4 e8 | c8 A8 | d8 c6 B2 | A8 G4 d4- | d4 d4 d8 | B8 c8 | d8 e4 d4- | d2 c2 c8 B4 | c4 G8 E4 | %42
w: * Quem in|mun- di|pre- * *|ti- um Fruc-|* tus ven-|tris ge-|ne- ro- *||si Fruc- tus|
 A6 G2 F6 E2 | D4 d8 ^c2 B2 | ^c4 d4 A4 d4- | d4 ^c4 d4 A4 | d8 B8 | B8 z8 | A8 B8 | G8 E4 G4- | %50
w: ven- tris ge- ne-|ro- * * *|* * si Rex|_ ef- fu- dit|gen- ti-|um.|Rex ef-|fu- dit gen-|
 G4 ^F4 G8 | z16 | z8 B8 | c4 A8 ^G4 | A4 A4 ^G8 ||[M:3/2] B8 B4 | A8 d4 | B8 B4 | c8 c4 | %59
w: * ti- um.||Rex|ef- fu- dit|gen- ti- um.|2.No- bis|da- tus,|no- bis|na- tus|
 e6 e2 e4 | d4 e6 ^f2 | g12 | d8 d4 | e8 e4 | d8 c4 | d8 d4 | c6 c2 d4 | d4 ^c6 c2 | d12 | e8 e4 | %70
w: Ex in- tac-|ta Vir- gi-|ne,|Et in|mun- do|con- ver-|sa- tus|Spar- so ver-|bi se- mi-|ne,|Su- i|
 d8 e4 | d8 c4 | d8 d4 | c6 c2 c4 | d4 B8 | c8 c4 | B12 ||[M:4/2] z16 | z16 | z16 | B16 | B8 c8 | %82
w: mo- ras|in- co-|la- tus|Mi- ro clau-|sit or-|* di-|ne.||||3.In|su- pre-|
 B16 | A12 B4 | c12 B2 A2 | B6 c2 d4 B4 | c16 | d16 | c8 c8 | d8 c8 | c12 B4 | A8 c8 | %92
w: mae|noc- *|||te|coe-|nae Re-|* cum-|bens _|_ cum|
 B4 A6 G2 G4- | G4 ^F2 E2 F4 E4 | G4 D2 E2 F2 G2 A4- | A2 G2 G8 ^F4 | G8 A6 A2 | G16 | z8 G8 | %99
w: fra- * * *|* * * * tri-|bus, cum _ _ _ _|_ _ _ _|fra- * tri-|bus,|Ob-|
 A8 c8- | c4 B4 A8- | A8 G8 | d8 G4 c4- | c4 B4 A6 G2 | A2 B2 c4 F4 A4- | A2 G2 G8 ^F4 | G8 z8 | %107
w: ser- va-|* ta le-|* ge|ple- ne Ob-|* ser- va- *|* * * ta le-|* ge ple- *|ne|
 z16 | z16 | z8 A8 | B8 G8 | E8 A8- | A4 A4 G6 F2 | E16 | D6 E2 F4 G4- | G4 ^F4 G4 d4- | d4 d4 d8 | %117
w: ||Ci-|bis in|le- ga-|* li- bus, _|_|in le- ga- *|* li- bus, Ci-|* bum tur-|
 B12 c4 | d4 e6 d2 c4- | c4 B4 c4 C2 D2 | E2 F2 G2 E2 A4 G4 | F4 E2 D2 E4 F4 | E8 F4 G4- | %123
w: bae du-|o- de- * *|* * nae du- *|* * * * * o-|de- * * * *||
 G4 ^F4 G8 | z16 | z8 A8 | B8 c8 | A4 B6 A2 A4- | A4 ^G4 A6 =G2 | ^F2 E2 F4 G8 | E8 z8 | A8 B8 | %132
w: * * nae||Se|dat su-|is ma- * *||* * * ni-|bus.|Se dat|
 G8 E8 | F12 F4 | E4 A8 A4 | ^G16 || B12 B4 | A8 G8 | A4 d8 B4 | e6 d2 c8- | c8 c4 c4- | c4 B4 c8 | %142
w: su- is|ma- ni-|bus. ma- ni-|bus.|4.Ver- bum|ca- *|ro, pa- nem|ve- * *|* rum pa-|* nem ve-|
 G8 z4 c4- | c4 B4 c6 d2 | e12 d4 | c6 c2 d8 | G8 A8 | c12 B4 | A8 G8 | c8 d8 | e8 d8 | d8 e8 | %152
w: rum Ver-|* bo car- *|* nem|ef- fi- cit:|Fit- que|san- guis|Chris- ti|me- *|* rum,|Et si|
 c8 A8 | A8 B6 A2 | G4 c4 d8- | d4 d4 G8 | z16 | z16 | z8 z4 c4- | c4 B4 A8 | G4 G8 G4 | %161
w: sen- sus|de- * *||* fi- cit,|||Ad|_ fir- man-|dum cor sin-|
 A8 c4 A4- | A4 ^G4 A8 | E4 e8 d4 | c4 B4 d8- | d4 c4 B6 B2 | A4 A8 ^G4 | A8 E4 e4- | e4 e4 e8 | %169
w: ce- rum So-|* la fi-|des So- la|fi- des suf-|* * * fi-|cit. So- la|fi- des So-|* la fi-|
 e8 c6 c2 | B16 || A16 | ^G16 | A12 B4 | c8 c8- | c4 B2 A2 B8- | B8 e8- | e4 d4 c8 | d16 | c8 z8 | %180
w: des suf- fi-|cit.|5.Tan-|tum|er- *|go Sa-|||* cra- men-||tum|
 c12 B4 | A4 G4 F8- | F4 E4 D8 | E12 C4 | G16 | z8 A8- | A8 E8 | G16 | D12 d4- | d4 c8 B4 | %190
w: Ve- ne-|re- mur Ve-|* ne- re-||mur|Ve-|* ne-|re-|mur cer-|* * nu-|
 c6 d2 e8 | d8 D8 | E8 G8- | G8 F8 | D8 D8 | E16 | D8 F8 | G8 A4 G4- | G4 ^F2 E2 F8 | G16 | z16 | %201
w: i: _ _|_ Et|an- ti-|* quum|do- cu-|men-|tum No-|vo ce- *||dat||
 c16 | d8 B8 | G8 A4 G4- | G4 ^F2 E2 F4 F4 | G16 | z8 c8- | c8 B8 | c12 B4 | A8 G8- | G4 F2 E2 F8 | %211
w: No-|vo ce-|dat ri- *|* * * * tu-|i:|Praes-|* tet|fi- *|* des|_ _ _ _|
 E16 | F8 G8 | D16 | z8 d8- | d8 e8- | e4 e4 c8- | c8 A8- | A8 B8- | B8 G8- | G8 A4 G4- | %221
w: sup-|ple- men-|tum|Sen-||* su- um|_ de-|* fec-|||
 G4 ^F2 E2 F4 F4 | G16 | z16 | z16 | c16 | d12 d4 | B16 | c12 B4 | A8 A8 | ^G16 ||[M:3/2] B8 B4 | %232
w: * * * * tu-|i.|||Sen-|* su-|um|de- *|fec- tu-|i.|6.Ge- ni-|
 A8 d4 | B8 B4 | c8 c4 | e6 e2 e4 | d4 e6 ^f2 | g12 | d8 d4 | e8 e4 | d8 c4 | d8 d4 | c6 c2 d4 | %243
w: to- ri,|Ge- ni-|to- que|Laus et ju-|bi- la- ti-|o,|Sa- lus,|ho- nor,|vir- tus|quo- que|Sit et be-|
 d4 ^c6 c2 | d12 | e8 e4 | d8 e4 | d8 c4 | d8 d4 | c6 c2 c4 | d4 B8 | c8 c4 | B12 || %253
w: ne- dic- ti-|o:|Pro- ce-|den- ti|ab u-|tro- que|Com- par sit|lau- da-|* ti-|o.|
[M:4/2] c8 d8- | d4 G4 A8 | B16 |] %256
w: A- *||men.|
V:4
 z16 | z16 | z16 | z16 | z16 | z16 | z16 | z16 | E,16 | E,8 F,8 | E,8 D,8 | G,8 G,8 | %12
w: ||||||||1.Pan-|ge lin-|gua _|glo- ri-|
 A,6 G,2 F,8- | F,4 E,4 D,8 | A,8 z8 | F,8 G,8 | F,4 F,8 E,4 | D,6 C,2 A,,2 B,,2 C,4- | %18
w: o- * *||si|Cor- *|po- ris mys-|te- * * * *|
 C,4 G,,4 D,4 D,4 | E,12 C,4 | G,8 F,6 G,2 | A,4 A,4 G,8 | z16 | z16 | z8 D,8 | E,8 G,8 | F,8 E,8 | %27
w: * ri- um, mys-|te- *||* ri- um,|||San-|gui- nis-|que pre-|
 D,8 E,8 | A,,8 z8 | D,8 E,8 | C,8 A,,8 | D,4 D,4 C,6 B,,2 | A,,8 D,8 | G,,8 z4 G,4 | A,8 F,8 | %35
w: ti- o-|si,|Quem in|mun- di|pre- ti- um _|_ _|* Quem|in mun-|
 G,8 C,4 C,4 | D,8 G,,8 | G,12 G,4 | G,8 E,8 | F,8 G,8 | A,8 G,8 | C,8 C,8- | C,4 A,,4 D,6 C,2 | %43
w: di pre- ti-|um _|Fruc- tus|ven- tris|ge- ne-|ro- *|si Fruc-|* tus ven- tris|
 B,,8 A,,4 A,4- | A,4 D,4 F,6 G,2 | A,8 D,8 | D,8 G,8 | E,4 E,4 A,6 G,2 | F,4 F,4 E,4 E,4- | %49
w: ge- ne- ro-||* si|Rex ef-|fu- dit gen- *|* ti- um. Rex|
 E,2 D,2 C,8 B,,4 | A,,4 A,,4 G,,8 | z4 G,4 A,8 | F,8 E,8 | A,,8 E,4 E,4 | A,,2 B,,2 C,2 D,2 E,8 || %55
w: _ ef- fu- dit|gen- ti- um.|Rex ef-|fu- dit|_ gen- ti-|um. _ _ _ _|
[M:3/2] E,8 E,4 | F,8 D,4 | G,8 G,4 | C,8 C,4 | C6 C2 C4 | B,4 A,6 A,2 | G,12 | G,8 G,4 | E,8 C,4 | %64
w: 2.No- bis|da- tus,|no- bis|na- tus|Ex in- tac-|ta Vir- gi-|ne,|Et in|mun- do|
 G,8 A,4 | G,8 G,4 | A,6 A,2 F,4 | D,4 A,6 A,2 | D,12 | C,8 E,4 | G,8 E,4 | G,8 A,4 | G,8 G,4 | %73
w: con- ver-|sa- tus|Spar- so ver-|bi se- mi-|ne,|Su- i|mo- ras|in- co-|la- tus|
 A,6 A,2 F,4 | D,4 E,8 | A,,8 A,,4 | E,12 ||[M:4/2] z16 | E,16 | E,8 F,8 | E,16 | D,8 C,6 D,2 | %82
w: Mi- ro clau-|sit or-|* di-|ne.||3.In|su- pre-|mae|noc- * *|
 E,16 | A,,8 D,8 | C,8 G,,8- | G,,8 G,8 | F,6 G,2 A,8 | G,16 | C,16 | z16 | F,8 G,8 | F,4 F,8 E,4 | %92
w: |te _|coe- nae|_ noc-|te _ _|coe-|nae||Re- *|cum- bens cum|
 D,6 C,2 B,,4 A,,2 G,,2 | A,,8 A,,8 | G,,8 z8 | C,8 D,8 | E,6 E,2 D,8 | z8 G,,8 | C,8 E,8 | %99
w: fra- * * * *|* tri-|bus,|cum fra-|* tri- bus,|Ob-|ser- va-|
 D,8 C,8 | G,,8 z8 | z16 | D,8 E,8 | G,8 F,6 E,2 | D,4 C,4 D,8 | G,,4 B,,4 A,,8 | G,,8 G,8 | %107
w: ta le-|ge||Ob- ser-|va- ta _|_ _ _|le- ge ple-|ne Ci-|
 A,8 F,8- | F,4 F,4 G,4 G,4 | A,8 z8 | D,8 E,8 | C,8 A,,8 | D,8 G,,8 | A,,12 A,,4 | D,16- | %115
w: bis in|_ le- ga- li-|bus,|Ci- bis|in le-|ga- *|* li-|bus,|
 D,8 z8 | G,12 G,4 | G,8 E,8 | F,4 G,4 A,8 | G,8 C,8 | C,12 C,4 | D,4 B,,4 A,,8- | A,,8 D,8- | %123
w: _|Ci- bum|tur- bae|du- o- de-|* nae|du- o-|de- * *|* nae|
 D,8 z8 | G,8 A,8 | F,4 G,4 A,4 F,4 | E,8 A,,8 | z8 D,8 | E,8 C,4 A,,4 | D,4 D,4 G,,8 | C,12 A,,4 | %131
w: _|Se dat|su- is ma- ni-|bus. _|Se|dat su- is|ma- ni- bus.|Se dat|
 D,8 G,,8 | C,16 | D,16 | A,,16 | E,16 || E,12 E,4 | F,8 E,8 | D,8 G,8 | E,8 A,6 G,2 | F,8 C,8 | %141
w: su- is|ma-||ni-|bus.|4.Ver- bum|ca- ro,|pa- nem|ve- * *|* rum|
 z8 z4 C4- | C4 B,4 C8 | G,8 E,6 D,2 | C,4 C8 B,4 | A,6 A,2 G,8 | z16 | z8 G,8 | A,4 C8 B,4 | %149
w: Ver-|* bo car-|nem ef- *||* fi- cit:||Fit-|que san- guis|
 A,8 G,8 | C,8 G,8- | G,8 G,8 | A,8 F,8 | D,8 G,6 F,2 | E,8 D,8- | D,4 D,4 C,8 | C8 B,8 | A,8 G,8 | %158
w: Chris- ti|me- rum,|_ Et|si sen-|sus de- *||* fi- cit,|Ad fir-|man- dum|
 F,8 E,8 | G,8 D,8 | E,8 C,8 | F,8 A,8 | E,6 E,2 A,,4 A,4- | A,4 G,4 F,8 | E,8 D,2 E,2 F,2 G,2 | %165
w: cor sin-|ce- rum|So- la|fi- des|suf- fi- cit. Ad|_ fir- man-|dum cor _ _ _|
 A,4 A,,4 E,8 | F,8 E,8 | z4 A,8 ^G,4 | A,8 E,8 | A,,12 A,,4 | E,16 || A,,16 | E,16 | D,16 | C,16 | %175
w: _ sin- ce-|* rum|So- la|fi- des|suf- fi-|cit.|5.Tan-|tum|er-|go|
 G,16 | E,16 | A,16 | G,16 | C,16 | z16 | F,12 E,4 | D,4 C,4 B,,8 | A,,16 | G,,16 | D,16 | %186
w: Sa-|cra-|men-||tum||Ve- ne-|re- * *|mur|_|Ve-|
 A,,8 C,8 | G,,8 G,8- | G,4 ^F,2 E,2 F,8 | G,12 G,4 | C,8 z8 | D,16 | C,8 C,8 | G,,8 D,8- | %194
w: ne- re-|mur cer-||* nu-|i:|Et|an- ti-|quum do-|
 D,4 C,4 B,,8 | A,,16 | z8 D,8 | E,8 C,8 | D,16 | G,,16 | G,16 | A,8 F,8 | D,8 G,8- | G,8 C,8 | %204
w: * cu- men-|tum|No-|vo ce-||dat|No-|vo ce-|dat ri-|* tu-|
 D,16 | z8 G,8- | G,8 C,8 | G,16 | C,16 | D,8 G,,8 | D,16 | A,,16 | D,8 G,,4 G,4- | %213
w: i:|Praes-|* tet|fi-|des|sup- ple-|men-|tum|sup- ple- men-|
 G,4 ^F,2 E,2 F,8 | G,8 z8 | G,16 | A,12 A,4 | F,16 | D,16 | E,16 | C,16 | D,12 D,4 | G,,8 z8 | %223
w: |tum|Sen-|* su-|um|de-|fec-||* tu-|i.|
 G,16 | A,12 A,4 | F,16 | D,16 | E,16 | A,,16- | A,,8 A,,8 | E,16 ||[M:3/2] E,8 E,4 | F,8 D,4 | %233
w: Sen-|* su-|um|de-|fec-||* tu-|i.|6.Ge- ni-|to- ri,|
 G,8 G,4 | C,8 C,4 | C6 C2 C4 | B,4 A,6 A,2 | G,12 | G,8 G,4 | E,8 C,4 | G,8 A,4 | G,8 G,4 | %242
w: Ge- ni-|to- que|Laus et ju-|bi- la- ti-|o,|Sa- lus,|ho- nor,|vir- tus|quo- que|
 A,6 A,2 F,4 | D,4 A,6 A,2 | D,12 | C,8 E,4 | G,8 E,4 | G,8 A,4 | G,8 G,4 | A,6 A,2 F,4 | D,4 E,8 | %251
w: Sit et be-|ne- dic- ti-|o:|Pro- ce-|den- ti|ab u-|tro- que|Com- par sit|lau- da-|
 A,,8 A,,4 | E,12 ||[M:4/2] A,8 D,8 | G,8 F,8 | E,16 |] %256
w: * ti-|o.|A- *||men.|

